X: 24002
T: Log Cabin, The
R: reel
M: 4/4
K: Dmixolydian
A,D~D2 FGAB|=cdDE FGA^c|d2^cd BdAG|FADB, C2B,C|
A,D~D2 FGAB|=cdDE FGA^c|d2^cd BAGF|1 ED^CE D2 z2:|2 ED^CE D2 (3AB^c||
|:d2fd Adfd|g2fg egfe|d2fd Adfd|cAGE CDEC|
d2fd Adfd|(3B^cd ef g2ag|fae^c dBAG|1 FAEA Dz (3AB^c:|2 FAEA Dz z2||

